X:1
T:Easter Skene
T:Easter Skene
T:Alexander Walker
C:Alexander Walker
L:1/8
M:4/4
K:F
V:1 treble 
V:1
 A | F<FA>F D>FC>A, | F>GA>F G>G,G,>C | F<FA>F D<FC<A, | B,>DC>E F3 C | F>FA>F D>FC>A, | %6
 B,>DA,>F G,<GG>B | A<Fc>A B<Gg>f | e>cd>e f2- f || c | f>ag>a f<cf>d | c<AA>G F<DD>c | %12
 A>fc>f A>fc<A | G<gg>^f (g2 g>)e | f>ag>a f<cf>d | c<AA>G F<DD>c | f>g a/g/f/e/ f/e/d/c/ d<f | %17
 c<FA>G [A,F]2- [A,F] || %18

